X:1
T:Est ce au moyen
T:Pierre Certon
T:Source : Livre X de 28 chansons nouvelles à 4 parties---Paris---P.Attaingnant---1541. Editor : André Vierendeels (24/05/18) Notes : Original clefs : C2, C3, C4, F4 Original note values have been halved Editorial accidentals above the staff
T:Est ce au moyen
T:©
T:©
T:©
C:Pierre Certon
Z:©
%%score [ 1 [ 2 3 ] 4 ]
L:1/8
Q:1/4=120
M:2/2
K:F
V:1 treble nm="Alto" snm="A"
V:2 treble-8 nm="Tenor 1" snm="T 1"
V:3 treble-8 nm="Tenor 2" snm="T 2"
V:4 bass nm="Bass" snm="B"
V:1
 F8 | F6 F2 | E2 E2 D2 C2 | C2 B,2 C4 | z2 c2 c2 c2 | FEFG A4 | G4 z2 F2 | G2 A2 B3 A | GF F4 E2 | %9
w: Est|ce'au moy-|en d'u- ne gran-|de'a- my- tié,|ou pour rai-|son _ _ _ _|_ de|gran- de'i- ni- *|* * * mi-|
w: Que|des- sus|moy crains ges- ter|tes deux yeulx,|car ce- la|peult _ _ _ _|_ ve-|nir de l'un _|_ _ _ des|
[M:2/4] F4 :|[M:2/2] D4 F4- | F2 F2 E4 | z2 F2 F2 E2 | F2 C2 F2 G2 | AGFE F4 | E4 C4 | %16
w: tié,|par- ce|_ que l'oeil|est du cueur|la fe- ne- *||stre, et|
w: deux,|||||||
 C2 C2 C2 C2 | A,2 A3 G F2- | FD E2 F4 | E8 | F4 G2 G2 | E2 E2 F4- | F2 E2 D2 D2 | C4 z2 C2 | %24
w: le pro- font du|cueur il faict con-|* * gnoi- *|stre,|dont si qu'il|veult sa pas-|* si- on cou-|vrir, où|
w: ||||||||
 D4 E4 | F4 z2 F2 | E2 E2 C2 E2 | D2 C4 B,2 | C8 | z2 E2 F4 | G4 C4- | C4 F4 | G2 G2 F2 F2 | E8 | %34
w: son cueur|tend ses|yeulx craint des- cou-||vrir,|si le|pre- mier|_ O|mal- heur tres heu-|reux,|
w: ||||||||||
 D4 E2 E2 | F8 | E8 | F6 F2 | E2 F4 E2 | F4 z2 C2 | D2 C2 D2 D2 | C8 |] %42
w: si le der-|nier,|O|mal- heur|mal- * heu-|reux, O|mal- heur mal- heu-|reux.|
w: ||||||||
V:2
 c8 | d6 d2 | c2 c2 B2 A2 | G2 G2 E2 A2 | G4 F2 c2 | c2 c2 F2 f2 | f2 e2 f2 d2 | d2 c2 BABc | %8
w: Est|ce'au moy-|en d'u- ne gran-|de'a- my _ _|_ tié, ou|pour rai- son, ou|pour rai- son de|gran- de'i- * * * *|
w: Que|des- sus|moy crains ges- ter|tes deux _ _|_ yeulx, car|ce- la peult, car|ce- la peult ve-|nir de l'un _ _ _|
 d2 c2 c4 |[M:2/4] A4 :|[M:2/2] B4 d2 d2 | c4 c4 | A2 F2 G2 G2 | FGAB cd e2 | d2 c4 B2 | c4 z2 G2 | %16
w: * ni- mi-|tié,|par- ce que|l'oeil est|du cueur la fe-|ne- * * * * * *||stre, et|
w: _ _ des|deux,|||||||
 A2 A2 G2 G2 | F2 c2 c2 d2- | dc c4 B2 | c8 | d4 d2 d2 | c2 c2 A2 d2- |"^-natural" dc c4 B2 | %23
w: le pro- font du|cueur il faict con-|* * gnoi- *|stre,|dont si qu'il|veult sa pas- si-|* * on cou-|
w: |||||||
 c2 G2 A4 | B4 c3 B | AG A4 GF | G2 G2 G2 G2 | B2 F2 G4 | G8 | c4 d2 c2 | B4 A4- | A4 c4 | %32
w: vrir, où son|cueur tend _|_ _ _ ses _|yeulx craint des- cou-|* vrir, si|le|pre- mier O|mal- heur|_ O|
w: |||||||||
 _e2 e2 c2 c2 | c8 | B4 c2 c2 | d8 | c8 | d6 d2 | c4 c4 | A4 z2 A2 | B2 A2 B2 B2 | A8 |] %42
w: mal- heur tres heu-|reux,|si le der-|nier,|O|mal- heur|mal- heu-|reuxx, O|mal- heur mal- heu-|reux.|
w: ||||||||||
V:3
 A8 | B4 B4 | A3 A F3 E | D2 D2 C2 F2- | F2 E2 F4- | F4 z2 c2 | c2 c2 F4 | z2 c2 d3 c | B2 A2 G4 | %9
w: Est|ce'au moy-|en d'u- ne gran-|de'a- my- * *|* * tié|_ ou|pour rai- son|de gran- de'i-|ni- my- *|
w: Que|des- sus|moy crains ges- *|* ster tes deux-|* * yeulx,|_ car|ce- la peult|ve- nir de|l'un des _|
[M:2/4] F4 :|[M:2/2] F4 B2 B2 | A4 z2 c2 | c2 B2 c2 G2 | A2 FG AB c2- | cBAG F4 | G2 G4 E2 | %16
w: tié,|par- ce que|l'oeil est|du cueur la fe-|ne- stre _ _ _ _|_ _ _ _ _|* et le|
w: deux,|||||||
 C2 F4 E2 | F2 F2 A2 B2- | BA G4 F2 | G8 | B4 B2 B2 | G2 G2 F2 B2 | B2 G2 G4 | z2 C4 F2 | %24
w: pro- fond du|cueur il faict con-|* * gnoi- *|stre,|dont si qu'il|veult sa pas- si-|on cou- vrir,|où son|
w: ||||||||
 D2 G2 z2 G2 | A2 c4 B2 | c2 C2 E2 E2 | FEDC D4 | C8 | z2 G3 F F2- | F2 E2 F4- | F4 A4 | %32
w: cueur tend, où|son cueur tend|ses yeulx craint des-|cou- * * * *|vrir,|si le pre-|* * mier|_ O|
w: ||||||||
 B2 B2 A2 A2 | G8 | G4 G2 G2 | B8 | G8 | B6 B2 | G4 G4 | F8- | F8- | F8 |] %42
w: mal- heur tres heu-|eux,|si le der-|nier,|O|mal- heur|mal- heu-|reux.|_||
w: ||||||||||
V:4
 F,8 | B,,3 C, D,2 D,2 | A,,2 A,,2 B,,2 F,,2 | G,,2 G,,2 A,,3 B,, | C,4 F,,4 | z2 F,2 F,2 F,2 | %6
w: Est|ce'au _ _ moy-|en d'u- ne gran-|de'a- my- tié, _|_ _|ou pour rai-|
w: Que|des- * * sus|moy crains ges- ter|tes deux yeulx, _|_ _|car ce- la|
 C,2 C,2 D,3 C, | B,,2 A,,2 G,,3 A,, | B,,2 F,,2 C,4 |[M:2/4] F,,4 :|[M:2/2] B,,4 B,,2 B,,2 | %11
w: son de gran- *|* de'i- ni- *|* my- *|tié,|par- ce que|
w: peult ve- nir _|_ de l'un- *|* des _|deux,||
 F,,G,,A,,B,, C,2 G,,2 | D,2 D,2 C,4 | z2 F,2 F,2 E,2 | F,2 C,2 D,4 | C,4 C,4 | A,,2 F,,2 C,2 C,2 | %17
w: l'oeil _ _ _ _ par-|ce que l'oeil|est du cueur|le fa- ne-|stre, et|le pro- font du|
w: ||||||
 F,,2 F,2 F,E,D,C, | B,,2 C,2 D,4 | C,8 | B,,4 G,,2 G,,2 | C,2 C,2 D,3 C, | B,,2 C,2 G,,4 | %23
w: cueur il faict _ _ _|_ con- gnoi-|stre,|dont si qu'il|veult sa pas- si-|on cou- *|
w: ||||||
 C,4 z2 F,,2 | C,2 G,,2 C,2 C,2 | F,4 D,4 | C,2 C,2 C,2 z2 | B,,2 A,,2 G,,4 | C,8 | C,4 B,,2 A,,2 | %30
w: vrir, où|son cueur tend, où|son cueur|tend ses yeulx|craint des- cou-|vrir,|si le pre-|
w: |||||||
 G,,4 F,,4- | F,,4 F,4 | _E,2 E,2 F,2 F,2 | C,8 | G,,4 C,2 C,2 | B,,8 | C,8 | B,,6 B,,2 | C,4 C,4 | %39
w: * mier,|_ O|mal- heur tres heu-|reux,|si le der-|nier,|O|mal- heur|mal- heu-|
w: |||||||||
 F,,4 z2 F,,2 | B,,2 F,,2 B,,2 B,,2 | F,,8 |] %42
w: reux, O|mal- heur mal- heu-|reux.|
w: |||

